outputs/icons/general/note_round.svg

<svg xmlns="http://www.w3.org/2000/svg" width="1200" height="1200" fill="none"><path fill="#000" d="M400 850c0-27.615 22.386-50 50-50h300c27.615 0 50 22.385 50 50s-22.385 50-50 50H450c-27.614 0-50-22.385-50-50m0-200c0-27.615 22.386-50 50-50h300c27.615 0 50 22.385 50 50s-22.385 50-50 50H450c-27.614 0-50-22.385-50-50m300-550H300c-55 0-100 45-100 100v800c0 55 44.5 100 99.5 100H900c55 0 100-45 100-100V400zm200 900H300V200h350v237.5c0 6.904 5.595 12.5 12.5 12.5H900z"/></svg>

<svg width="1200" height="1200" viewBox="0 0 1200 1200" fill="none" xmlns="http://www.w3.org/2000/svg"><path d="M400 850C400 822.385 422.386 800 450 800H750C777.615 800 800 822.385 800 850C800 877.615 777.615 900 750 900H450C422.386 900 400 877.615 400 850ZM400 650C400 622.385 422.386 600 450 600H750C777.615 600 800 622.385 800 650C800 677.615 777.615 700 750 700H450C422.386 700 400 677.615 400 650ZM700 100H300C245 100 200 145 200 200V1000C200 1055 244.5 1100 299.5 1100H900C955 1100 1000 1055 1000 1000V400L700 100ZM900 1000H300V200H650V437.5C650 444.404 655.595 450 662.5 450H900V1000Z" fill="#1D1E23"/></svg>
